arrow.svg

<svg width="25" height="24" viewBox="0 0 25 24" fill="none" xmlns="http://www.w3.org/2000/svg">
<path d="M19.4165 12.547L13.9165 17.797C13.604 18.0783 13.1353 18.0783 12.854 17.7658C12.5728 17.4533 12.5728 16.9845 12.8853 16.7033L17.0415 12.7345H6.4165C5.979 12.7345 5.6665 12.422 5.6665 11.9845C5.6665 11.5783 5.979 11.2345 6.4165 11.2345H17.0415L12.8853 7.29703C12.5728 7.01578 12.5728 6.51578 12.854 6.23453C13.1353 5.92203 13.6353 5.92203 13.9165 6.20328L19.4165 11.4533C19.5728 11.6095 19.6665 11.797 19.6665 11.9845C19.6665 12.2033 19.5728 12.3908 19.4165 12.547Z" fill="white"/>
</svg>

<svg xmlns="http://www.w3.org/2000/svg" width="25" height="24" fill="none"><path fill="#fff" d="m19.417 12.547-5.5 5.25c-.313.281-.782.281-1.063-.031s-.281-.781.031-1.063l4.156-3.968H6.416a.72.72 0 0 1-.75-.75.74.74 0 0 1 .75-.75h10.625l-4.156-3.938a.746.746 0 0 1-.031-1.062.746.746 0 0 1 1.063-.032l5.5 5.25c.156.157.25.344.25.532a.78.78 0 0 1-.25.562"/></svg>
